X: 42333
T: Wee Rabbit, The
R: hornpipe
M: 4/4
K: Dmajor
M:6/8
K:Bbmaj
C|:D2B, B,CB,|C2D EDC|F2B B2A|B2A G2F|D2G G3|B2A G2B|A2F F2=E|F3 F2E|
DEF E2D|CDE D2C|B,2D F2G-|G2F E2D|F2G A2B|c2A G2F|F2B B2A|1 B3 F2E:|2 B3 B2c||
d2B BcB|d2f b2a|g3 g2f|g2f e2d|edc c2B|c2B A2G|G2F =EFG|F3 f2E|
DEF E2D|CDE D2C|B,2D F2G-|G2F E2D|F2G A2B|c2A G2F|F2B B2A|B3 B2c|
d2B BcB|d2f b2a|g3 g2f|g2f e2d|edc c2B|c2B A2G|G2F =EFG|F3 f2E|
D2B, B,CB,|D2F B2F|G2e e2d|c2B A2G|GAc f2e|d2c B2A-|A2B B2A|B3 F2E||

